X: 8761
T: Cuckfield Place
R: jig
M: 6/8
K: Dmajor
|:ABc cAF|GEA F2D|DEF GAB|dBe c2A|
ABc cAF|GEA F2D|agf efd|eAc d3:|
|:agf gfe|dBe c2A|dAd eAe|fAf e3|
agf gfe|dBe c2A|dcB AGF|EDC D3:|

